src/actions/16/format-border-set-internal-vertical.svg

<svg version="1.1" viewBox="0 0 16 16" xmlns="http://www.w3.org/2000/svg">
 <defs>
  <style id="current-color-scheme" type="text/css">.ColorScheme-Text {
        color:#363636;
      }
      .ColorScheme-ViewBackground {
        color:#fcfcfc;
      }</style>
 </defs>
 <path class="ColorScheme-ViewBackground" d="m15 1h-6v1h5v5h-5v1h5v5h-5v1h6v-12zm-7 0h-6v13h6v-1h-5v-5h5v-1h-5v-5h5z" fill="currentColor"/>
 <path class="ColorScheme-Text" d="m14 13h-5v-5h5zm0-6h-5v-5h5zm-6 6h-5v-5h5zm0-6h-5v-5h5z" fill="currentColor" fill-opacity=".5"/>
</svg>

<svg xmlns="http://www.w3.org/2000/svg" viewBox="0 0 16 16">
    <path fill="currentColor" d="M15 1H9v1h5v5H9v1h5v5H9v1h6V2zM8 1H2v13h6v-1H3V8h5V7H3V2h5z" style="color:#fcfcfc"/>
    <path fill="currentColor" fill-opacity=".5" d="M14 13H9V8h5zm0-6H9V2h5zm-6 6H3V8h5zm0-6H3V2h5z" style="color:#050505;opacity:.7"/>
</svg>
